build/static/img/icons/phone.svg

<svg width="19"
     height="19"
     viewBox="0 0 19 19"
     fill="none"
     xmlns="http://www.w3.org/2000/svg">
<path
        fill-rule="evenodd"
        clip-rule="evenodd"
        d="M3.00228 0.0186405C2.6845 0.0564829 2.32669 0.179465 2.06167 0.341946C1.93821 0.41763 1.74556 0.597408 1.11624 1.22422C0.262882 2.07413 0.256246 2.08226 0.131424 2.43236C0.00724181 2.7807 -0.00929648 2.88963 0.00368608 3.27375C0.0324213 4.12296 0.0514817 4.40161 0.119909 4.97204C0.50736 8.2022 1.89937 11.2731 4.08238 13.7137C4.42573 14.0975 5.15172 14.8112 5.52437 15.1312C7.94688 17.2113 10.8507 18.5008 14.0002 18.8949C14.6468 18.9758 14.9868 18.9973 15.6437 18.9987L16.2536 19L16.4603 18.9303C16.9289 18.7725 16.8914 18.8009 17.728 17.9681C18.141 17.557 18.5211 17.1648 18.5728 17.0965C18.7577 16.852 18.9143 16.4762 18.9736 16.1344C19.0086 15.9326 19.0089 15.5163 18.9741 15.3585C18.9285 15.1515 18.8102 14.8095 18.7236 14.6344C18.4675 14.1166 17.8494 13.5558 17.3399 13.3791C17.2768 13.3572 16.6298 13.1746 15.9021 12.9733L14.5791 12.6073L14.1863 12.6086C13.8317 12.6097 13.7743 12.615 13.5954 12.6631C13.3342 12.7334 13.1099 12.8247 12.9057 12.9439C12.768 13.0243 12.6459 13.1334 12.2005 13.574C11.9043 13.867 11.652 14.1068 11.64 14.1068C11.5905 14.1068 10.8254 13.8482 10.5624 13.7427C10.2107 13.6014 9.61326 13.3062 9.29328 13.1156C7.18695 11.8604 5.65155 9.88779 4.96341 7.55269L4.90687 7.36087L5.42419 6.83888C5.96677 6.29141 6.01707 6.23085 6.15244 5.96217C6.35278 5.56453 6.43332 5.19216 6.41806 4.7341C6.40723 4.40916 6.42672 4.4941 6.05225 3.14096C6.01918 3.02147 5.91616 2.64439 5.82334 2.303C5.7305 1.96162 5.62296 1.61354 5.58437 1.52954C5.47929 1.30081 5.30334 1.04961 5.09667 0.833235C4.75255 0.472997 4.45772 0.283372 4.01023 0.134526C3.61991 0.0046953 3.36534 -0.0245814 3.00228 0.0186405Z"
        fill="#363636"/>
</svg>

<svg width="19" height="19" fill="none" xmlns="http://www.w3.org/2000/svg"><path fill-rule="evenodd" clip-rule="evenodd" d="M3.002.019c-.317.037-.675.16-.94.323-.124.076-.316.255-.946.882-.853.85-.86.858-.985 1.208-.124.349-.14.458-.127.842.028.849.047 1.128.116 1.698a16.023 16.023 0 003.962 8.742c.344.383 1.07 1.097 1.442 1.417A15.96 15.96 0 0014 18.895c.647.08.987.102 1.644.104l.61.001.206-.07c.469-.157.431-.13 1.268-.962.413-.411.793-.803.845-.872.185-.244.341-.62.4-.962a2.884 2.884 0 00.001-.776 3.988 3.988 0 00-.25-.724c-.256-.517-.875-1.078-1.384-1.255-.063-.022-.71-.204-1.438-.406l-1.323-.366-.393.002c-.354 0-.412.006-.59.054-.262.07-.486.162-.69.28-.138.081-.26.19-.706.631a10.16 10.16 0 01-.56.533c-.05 0-.815-.259-1.078-.364a11.775 11.775 0 01-1.269-.627 9.627 9.627 0 01-4.33-5.563l-.056-.192.517-.522c.543-.548.593-.608.728-.877.2-.397.281-.77.266-1.228-.01-.325.009-.24-.366-1.593a288.7 288.7 0 01-.229-.838 8.52 8.52 0 00-.239-.773 2.68 2.68 0 00-.487-.697c-.344-.36-.64-.55-1.087-.698-.39-.13-.645-.16-1.008-.116z" fill="#363636"/></svg>
